X:1
T:Title
L:1/8
M:4/4
K:F
V:1 treble nm="Grand Piano"
V:1
 z4 z2[Q:1/4=100] FG | A2 A2- AA A2 | AGBA GFFG | A2 A2- AA A2 | AGBA GFEF | G2 G2- GG G2 | %6
 GFAG FEDE | FE D2 cccB | BA A4 F2 | F2 F2- FGAG | BAGF E2 E2 | E2 E2- EFGF | AGFE D2 D2 | %13
 D2 D2- DE F2 | EF G2 G2 FG | A2 G2 cccB | BA A4 z2 |] %17

